X:18001
T:Unknown
M:6/8
L:1/8
S:Davy Muir, Glasgow
R:jig
Z:gturnbull@oblique-design.demon.co.uk
K:Em
BAF ~E3 | FED ~E3 | BAF ~E3 | ~F3 DFA |
BAF ~E3 | FED E2 B | edB ABd | edB AFE :||
ABd ~e3 | fed ~e3 | ABd ~e3 | faf def |
~g3 fgf | edB e2 B | edB ABd | edB AFE :||
